!!!SOCIAL_FUNCTION:	songs of games played in a ceremonial manner
!!!PDT:	1932
!!!OTL: No_5_Song_Received_from_the_Spirit_Women.krn
!!!REG: Wisconsin
!!!LANG: Non-Tone
!!!LING_GROUP: Algonquin
**kern
*staff1
=1-
*clefF4
*k[f#c#]
*M3/4
4r
8.r
32e\LLL
32e\JJJ
4e\
=2
[2e\
8e\L]
16.B\L
32e\JJk
=3
8.e\L
16d\Jk
8.d\L
32B\LL
32B\JJJ
8.B\L
16A\Jk
=4||
*M2/4
2A\
=5
8A\
16r
32e\LLL
32e\JJJ
4e\
=6||
*M3/4
[2d\
8d\L]
16.B\L
32e\JJk
=7
8.e\L
16d\Jk
8.d\L
32B\LL
32B\JJJ
8.B\L
16A\Jk
=8||
*M2/4
2A\
=9
4r
8.B\L
16B\Jk
=10
2A\
=11
16B\LL
16A\
16A\
16A\JJ
8A\L
16F#\L
16F#\JJ
=12||
*M3/4
16E\LK
8.E\J
4E\
8E\L
8E\J
=13
2E\
4r
==
*-
